小程序/delete.svg

<svg width="16" height="16">
  <path fill="#000" fill-rule="evenodd" d="M7.82061687.125c1.08464084 0 2.10009293.20198366 3.04638673.60595703.9462938.40397338 1.7708298.96012016 2.4736328 1.66845703.702803.70833688 1.2561829 1.5356398 1.6601563 2.4819336.4039733.94629379.605957 1.95621208.605957 3.02978515 0 1.08464084-.2019837 2.10009289-.605957 3.04638669-.4039734.9462938-.9573533 1.7708299-1.6601563 2.4736328-.702803.702803-1.527339 1.2589498-2.4736328 1.6684571-.9462938.4095072-1.96174589.6142578-3.04638673.6142578s-2.10009292-.2047506-3.04638672-.6142578c-.94629379-.4095073-1.77082982-.9656541-2.47363281-1.6684571-.70280299-.7028029-1.25618288-1.527339-1.66015625-2.4736328-.40397338-.9462938-.60595703-1.96174585-.60595703-3.04638669 0-1.07357307.20198365-2.08349136.60595703-3.02978515.40397337-.9462938.95735326-1.77359672 1.66015625-2.4819336.70280299-.70833687 1.52733902-1.26448365 2.47363281-1.66845703C5.72052395.32698366 6.73597603.125 7.82061687.125zm0 14.1611328c.88542109 0 1.71549093-.166014 2.49023433-.4980469.7747435-.3320329 1.449867-.7858044 2.0253907-1.3613281s1.0292952-1.2506472 1.3613281-2.0253906c.3320329-.7747435.4980469-1.60481329.4980469-2.49023439 0-.88542109-.166014-1.71549092-.4980469-2.49023437-.3320329-.77474346-.7858044-1.44986692-1.3613281-2.02539063-.5755237-.57552371-1.2506472-1.02929521-2.0253907-1.36132812-.7747434-.33203291-1.60481324-.49804688-2.49023433-.49804688-.88542109 0-1.71549092.16601397-2.49023437.49804688-.77474346.33203291-1.44986692.78580441-2.02539063 1.36132812-.57552371.57552371-1.02929521 1.25064717-1.36132812 2.02539063-.33203292.77474345-.49804688 1.60481328-.49804688 2.49023437 0 .8854211.16601396 1.71549089.49804688 2.49023439.33203291.7747434.78580441 1.4498669 1.36132812 2.0253906.57552371.5755237 1.25064717 1.0292952 2.02539063 1.3613281.77474345.3320329 1.60481328.4980469 2.49023437.4980469zm2.83886723-7.07226561c.2102875 0 .3790683.06363868.5063476.19091797.1272793.12727928.190918.29606014.190918.50634765 0 .22135528-.0636387.39566994-.190918.52294922-.1272793.12727928-.2960601.19091797-.5063476.19091797H4.98174968c-.21028751 0-.37906837-.06363869-.50634765-.19091797-.12727929-.12727928-.19091797-.30159394-.19091797-.52294922 0-.21028751.06363868-.37906837.19091797-.50634765.12727928-.12727929.29606014-.19091797.50634765-.19091797h5.67773442z"/>
</svg>

<?xml version="1.0" encoding="UTF-8"?>
<svg width="16px" height="16px" viewBox="0 0 16 16" version="1.1" xmlns="http://www.w3.org/2000/svg" xmlns:xlink="http://www.w3.org/1999/xlink">
    <!-- Generator: Sketch 50 (54983) - http://www.bohemiancoding.com/sketch -->
    <title>Shape</title>
    <desc>Created with Sketch.</desc>
    <defs></defs>
    <g id="Page-1" stroke="none" stroke-width="1" fill="none" fill-rule="evenodd">
        <g id="delete" fill="#000000">
            <path d="M7.82061687,0.125 C8.90525771,0.125 9.9207098,0.32698366 10.8670036,0.73095703 C11.8132974,1.13493041 12.6378334,1.69107719 13.3406364,2.39941406 C14.0434394,3.10775094 14.5968193,3.93505386 15.0007927,4.88134766 C15.404766,5.82764145 15.6067497,6.83755974 15.6067497,7.91113281 C15.6067497,8.99577365 15.404766,10.0112257 15.0007927,10.9575195 C14.5968193,11.9038133 14.0434394,12.7283494 13.3406364,13.4311523 C12.6378334,14.1339553 11.8132974,14.6901021 10.8670036,15.0996094 C9.9207098,15.5091166 8.90525771,15.7138672 7.82061687,15.7138672 C6.73597603,15.7138672 5.72052395,15.5091166 4.77423015,15.0996094 C3.82793636,14.6901021 3.00340033,14.1339553 2.30059734,13.4311523 C1.59779435,12.7283494 1.04441446,11.9038133 0.64044109,10.9575195 C0.23646771,10.0112257 0.03448406,8.99577365 0.03448406,7.91113281 C0.03448406,6.83755974 0.23646771,5.82764145 0.64044109,4.88134766 C1.04441446,3.93505386 1.59779435,3.10775094 2.30059734,2.39941406 C3.00340033,1.69107719 3.82793636,1.13493041 4.77423015,0.73095703 C5.72052395,0.32698366 6.73597603,0.125 7.82061687,0.125 Z M7.82061687,14.2861328 C8.70603796,14.2861328 9.5361078,14.1201188 10.3108512,13.7880859 C11.0855947,13.456053 11.7607182,13.0022815 12.3362419,12.4267578 C12.9117656,11.8512341 13.3655371,11.1761106 13.69757,10.4013672 C14.0296029,9.6266237 14.1956169,8.79655391 14.1956169,7.91113281 C14.1956169,7.02571172 14.0296029,6.19564189 13.69757,5.42089844 C13.3655371,4.64615498 12.9117656,3.97103152 12.3362419,3.39550781 C11.7607182,2.8199841 11.0855947,2.3662126 10.3108512,2.03417969 C9.5361078,1.70214678 8.70603796,1.53613281 7.82061687,1.53613281 C6.93519578,1.53613281 6.10512595,1.70214678 5.3303825,2.03417969 C4.55563904,2.3662126 3.88051558,2.8199841 3.30499187,3.39550781 C2.72946816,3.97103152 2.27569666,4.64615498 1.94366375,5.42089844 C1.61163083,6.19564189 1.44561687,7.02571172 1.44561687,7.91113281 C1.44561687,8.79655391 1.61163083,9.6266237 1.94366375,10.4013672 C2.27569666,11.1761106 2.72946816,11.8512341 3.30499187,12.4267578 C3.88051558,13.0022815 4.55563904,13.456053 5.3303825,13.7880859 C6.10512595,14.1201188 6.93519578,14.2861328 7.82061687,14.2861328 Z M10.6594841,7.21386719 C10.8697716,7.21386719 11.0385524,7.27750587 11.1658317,7.40478516 C11.293111,7.53206444 11.3567497,7.7008453 11.3567497,7.91113281 C11.3567497,8.13248809 11.293111,8.30680275 11.1658317,8.43408203 C11.0385524,8.56136131 10.8697716,8.625 10.6594841,8.625 L4.98174968,8.625 C4.77146217,8.625 4.60268131,8.56136131 4.47540203,8.43408203 C4.34812274,8.30680275 4.28448406,8.13248809 4.28448406,7.91113281 C4.28448406,7.7008453 4.34812274,7.53206444 4.47540203,7.40478516 C4.60268131,7.27750587 4.77146217,7.21386719 4.98174968,7.21386719 L10.6594841,7.21386719 Z" id="Shape"></path>
        </g>
    </g>
</svg>
